public/images/champion.svg

<?xml version="1.0" encoding="UTF-8" standalone="no"?>
<!-- Created with Inkscape (http://www.inkscape.org/) -->

<svg
   width="512"
   height="512"
   viewBox="0 0 135.46666 135.46666"
   version="1.1"
   id="svg1304"
   inkscape:version="1.1 (c68e22c387, 2021-05-23)"
   sodipodi:docname="champion.svg"
   xmlns:inkscape="http://www.inkscape.org/namespaces/inkscape"
   xmlns:sodipodi="http://sodipodi.sourceforge.net/DTD/sodipodi-0.dtd"
   xmlns="http://www.w3.org/2000/svg"
   xmlns:svg="http://www.w3.org/2000/svg">
  <sodipodi:namedview
     id="namedview1306"
     pagecolor="#505050"
     bordercolor="#eeeeee"
     borderopacity="1"
     inkscape:pageshadow="0"
     inkscape:pageopacity="0"
     inkscape:pagecheckerboard="0"
     inkscape:document-units="px"
     showgrid="false"
     width="512mm"
     units="px"
     inkscape:zoom="1"
     inkscape:cx="196.5"
     inkscape:cy="179.5"
     inkscape:window-width="1920"
     inkscape:window-height="1017"
     inkscape:window-x="1912"
     inkscape:window-y="-8"
     inkscape:window-maximized="1"
     inkscape:current-layer="layer1" />
  <defs
     id="defs1301">
    <filter
       style="color-interpolation-filters:sRGB;"
       inkscape:label="Colorize"
       id="filter139057"
       x="0"
       y="0"
       width="1"
       height="1">
      <feColorMatrix
         values="0.21 0.72 0.072 0 0 0.21 0.72 0.072 0 0 0.21 0.72 0.072 0 0 0 0 0 1 0 "
         id="feColorMatrix139055"
         result="fbSourceGraphic" />
      <feColorMatrix
         result="fbSourceGraphicAlpha"
         in="fbSourceGraphic"
         values="0 0 0 -1 0 0 0 0 -1 0 0 0 0 -1 0 0 0 0 1 0"
         id="feColorMatrix139265" />
      <feComposite
         in2="fbSourceGraphic"
         id="feComposite139267"
         operator="arithmetic"
         k1="0"
         k2="1"
         result="composite1"
         in="fbSourceGraphic" />
      <feColorMatrix
         id="feColorMatrix139269"
         in="composite1"
         values="1"
         type="saturate"
         result="colormatrix1" />
      <feFlood
         id="feFlood139271"
         flood-opacity="1"
         flood-color="rgb(0,0,0)"
         result="flood1" />
      <feBlend
         in2="colormatrix1"
         id="feBlend139273"
         in="flood1"
         mode="multiply"
         result="blend1" />
      <feBlend
         in2="blend1"
         id="feBlend139275"
         mode="screen"
         result="blend2" />
      <feColorMatrix
         id="feColorMatrix139277"
         in="blend2"
         values="1"
         type="saturate"
         result="colormatrix2" />
      <feComposite
         in2="fbSourceGraphic"
         id="feComposite139279"
         in="colormatrix2"
         operator="in"
         k2="1"
         result="composite2" />
    </filter>
  </defs>
  <g
     inkscape:label="Layer 1"
     inkscape:groupmode="layer"
     id="layer1">
    <path
       id="path148733"
       style="opacity:1;fill:#000000;fill-opacity:1;stroke:none;stroke-width:0.949903"
       d="M 67.733339,2.3812499 60.963927,39.806083 A 29.167336,29.167336 0 0 0 52.90512,43.210237 L 21.724472,21.522313 43.299854,52.814116 A 29.167336,29.167336 0 0 0 39.87625,60.943785 L 2.6681645,67.732636 39.6984,74.489527 a 29.167336,29.167336 0 0 0 3.388868,8.471482 L 21.724472,113.94435 52.414646,92.596843 a 29.167336,29.167336 0 0 0 8.672942,3.744565 l 6.645748,36.744002 6.608222,-36.535586 a 29.167336,29.167336 0 0 0 9.10088,-3.680654 L 113.7408,113.94435 92.811514,83.586253 a 29.167336,29.167336 0 0 0 3.809851,-9.25234 L 132.79849,67.732634 96.468536,61.103569 A 29.167336,29.167336 0 0 0 92.607249,52.176352 L 113.7408,21.522313 82.957522,42.933729 a 29.167336,29.167336 0 0 0 -8.495078,-3.348575 z" />
  </g>
</svg>

<svg width="512" height="512" viewBox="0 0 135.467 135.467" xmlns="http://www.w3.org/2000/svg"><path style="opacity:1;fill:#000;fill-opacity:1;stroke:none;stroke-width:.949903" d="m67.733 2.381-6.77 37.425a29.167 29.167 0 0 0-8.058 3.404l-31.18-21.688L43.3 52.814a29.167 29.167 0 0 0-3.424 8.13L2.668 67.733l37.03 6.757a29.167 29.167 0 0 0 3.39 8.471l-21.364 30.983 30.69-21.347a29.167 29.167 0 0 0 8.674 3.744l6.645 36.744 6.609-36.535a29.167 29.167 0 0 0 9.1-3.68l30.299 21.074-20.93-30.358a29.167 29.167 0 0 0 3.81-9.252l36.177-6.601-36.33-6.63a29.167 29.167 0 0 0-3.86-8.927l21.133-30.654-30.783 21.412a29.167 29.167 0 0 0-8.496-3.349z"/></svg>
